X: 28431
T: Mullin
R: slide
M: 12/8
K: Dmajor
F2A dBA B2A F2A|B2E EDE F2E D2E|
F2A dBA B2A F2A|1 B2B cBc d3 d2A:|2 B2B cBc d3 d2B||
|:A2d dcd B2A F2A|B2B BAB c2A F2G|
A2d dcd B2A F2A|1 B2e e2c d3 d2B:|2 B2e e2c d3 A2G||

